icons/14x14_text_outline.svg

<svg width="14" height="14" viewBox="0 0 14 14" xmlns="http://www.w3.org/2000/svg">
<path d="M13 7C13 7.55228 12.4627 8 11.8 8H2.2C1.53726 8 1 7.55228 1 7C1 6.44772 1.53726 6 2.2 6H11.8C12.4627 6 13 6.44772 13 7ZM10 11C10 11.5523 9.59706 12 9.1 12H1.9C1.40294 12 1 11.5523 1 11C1 10.4477 1.40294 10 1.9 10H9.1C9.59706 10 10 10.4477 10 11ZM13 3C13 3.55228 12.4627 4 11.8 4H2.2C1.53726 4 1 3.55228 1 3C1 2.44772 1.53726 2 2.2 2H11.8C12.4627 2 13 2.44772 13 3Z"/>
</svg>

<svg width="14" height="14" fill="none" xmlns="http://www.w3.org/2000/svg"><path d="M13 7c0 .552-.537 1-1.2 1H2.2C1.537 8 1 7.552 1 7s.537-1 1.2-1h9.6c.663 0 1.2.448 1.2 1Zm-3 4c0 .552-.403 1-.9 1H1.9c-.497 0-.9-.448-.9-1s.403-1 .9-1h7.2c.497 0 .9.448.9 1Zm3-8c0 .552-.537 1-1.2 1H2.2C1.537 4 1 3.552 1 3s.537-1 1.2-1h9.6c.663 0 1.2.448 1.2 1Z" fill="#000"/></svg>
